X:20023
T:Tombigbee Waltz
R:Waltz
C:Trad.
O:USA
Z:Paul Hardy's Session Tunebook 2015 (see www.paulhardy.net). Creative Commons cc by-nc-sa licenced.
M:3/4
L:1/4
Q:1/4=170
K:G
B/A/|"G"GBB|{B}d2B/A/|GBB|{B}d2B/c/|"D7"BAA|A3/2 B/c/d/|"C"ed"D7"F|"G"G2:|
|:d|"G"g2d|g2d|"C"e>de|"G"d2B|"D7"BAA|A2B/d/|"C"ed"D7"F|"G"G2:|

